X: 15924
T: Grandfather's Clock
R: barndance
M: 4/4
K: Gmajor
D2|G2FG A2GA|B2cB E2AA|G2GG F2EF|G6 DD|
G2FG A2GA|B2cB E2AA|G2GG FEF2|G6 Bc|
d2BAG2FG|AGFE D2Bc|d2BA G2FG|A6 DD|
G2z2 A2z2|(3 BBB cB E2AA|G4 F4|G6 DD|
G2DD EDD2|B,z Dz B,z DD|G2DD EDD2|B,z Dz B,z DD|
G2z2 A2z2|(3 BBB cB E2AA|G4 F4|G8||

